svg/system/settings_1_line.svg

<?xml version="1.0" encoding="UTF-8"?>
<svg width="24px" height="24px" viewBox="0 0 24 24" version="1.1" xmlns="http://www.w3.org/2000/svg" xmlns:xlink="http://www.w3.org/1999/xlink">
    <title>settings_1_line</title>
    <g id="页面-1" stroke="none" stroke-width="1" fill="none" fill-rule="evenodd">
        <g id="System" transform="translate(-1152.000000, 0.000000)">
            <g id="settings_1_line" transform="translate(1152.000000, 0.000000)">
                 <path d="M24,0 L24,24 L0,24 L0,0 L24,0 Z M12.5934901,23.257841 L12.5819402,23.2595131 L12.5108777,23.2950439 L12.4918791,23.2987469 L12.4918791,23.2987469 L12.4767152,23.2950439 L12.4056548,23.2595131 C12.3958229,23.2563662 12.3870493,23.2590235 12.3821421,23.2649074 L12.3780323,23.275831 L12.360941,23.7031097 L12.3658947,23.7234994 L12.3769048,23.7357139 L12.4804777,23.8096931 L12.4953491,23.8136134 L12.4953491,23.8136134 L12.5071152,23.8096931 L12.6106902,23.7357139 L12.6232938,23.7196733 L12.6232938,23.7196733 L12.6266527,23.7031097 L12.609561,23.275831 C12.6075724,23.2657013 12.6010112,23.2592993 12.5934901,23.257841 L12.5934901,23.257841 Z M12.8583906,23.1452862 L12.8445485,23.1473072 L12.6598443,23.2396597 L12.6498822,23.2499052 L12.6498822,23.2499052 L12.6471943,23.2611114 L12.6650943,23.6906389 L12.6699349,23.7034178 L12.6699349,23.7034178 L12.678386,23.7104931 L12.8793402,23.8032389 C12.8914285,23.8068999 12.9022333,23.8029875 12.9078286,23.7952264 L12.9118235,23.7811639 L12.8776777,23.1665331 C12.8752882,23.1545897 12.8674102,23.1470016 12.8583906,23.1452862 L12.8583906,23.1452862 Z M12.1430473,23.1473072 C12.1332178,23.1423925 12.1221763,23.1452606 12.1156365,23.1525954 L12.1099173,23.1665331 L12.0757714,23.7811639 C12.0751323,23.7926639 12.0828099,23.8018602 12.0926481,23.8045676 L12.108256,23.8032389 L12.3092106,23.7104931 L12.3186497,23.7024347 L12.3186497,23.7024347 L12.3225043,23.6906389 L12.340401,23.2611114 L12.337245,23.2485176 L12.337245,23.2485176 L12.3277531,23.2396597 L12.1430473,23.1473072 Z" id="MingCute" fill-rule="nonzero"></path>
                <path d="M10.75,2.56687 C11.46825,2.15218857 12.341273,2.12256847 13.0816334,2.47800969 L13.25,2.56687 L19.5443,6.20084 C20.2662333,6.61765733 20.7294467,7.36438187 20.7879999,8.18827291 L20.7943,8.36591 L20.7943,15.6339 C20.7943,16.46746 20.3792156,17.2419587 19.6949868,17.7046228 L19.5443,17.7989 L13.25,21.4329 C12.53175,21.8476 11.658727,21.8772214 10.9183666,21.5217643 L10.75,21.4329 L4.45581,17.7989 C3.73387667,17.3820733 3.27066333,16.6353569 3.21211015,15.8115239 L3.20581,15.6339 L3.20581,8.36591 C3.20581,7.53228467 3.62089444,6.75777293 4.30512319,6.29511549 L4.45581,6.20084 L10.75,2.56687 Z M12.25,4.29892 C12.1210833,4.22448667 11.9672361,4.21208111 11.8300093,4.26170333 L11.75,4.29892 L5.45581,7.9329 C5.32689333,8.007325 5.23922667,8.13436111 5.21358546,8.27801296 L5.20581,8.36591 L5.20581,15.6339 C5.20581,15.7827333 5.27199056,15.9221917 5.3835762,16.0162218 L5.45581,16.0669 L11.75,19.7008 C11.8789167,19.7753 12.0327639,19.7877167 12.1699907,19.73805 L12.25,19.7008 L18.5443,16.0669 C18.6732167,15.9924833 18.7608833,15.8654278 18.7865245,15.7217866 L18.7943,15.6339 L18.7943,8.36591 C18.7943,8.21704333 18.7281194,8.07760722 18.6165338,7.98357968 L18.5443,7.9329 L12.25,4.29892 Z M12,8 C14.2091,8 16,9.79086 16,12 C16,14.2091 14.2091,16 12,16 C9.79086,16 8,14.2091 8,12 C8,9.79086 9.79086,8 12,8 Z M12,10 C10.8954,10 10,10.8954 10,12 C10,13.1046 10.8954,14 12,14 C13.1046,14 14,13.1046 14,12 C14,10.8954 13.1046,10 12,10 Z" id="形状" fill="#09244B"></path>
            </g>
        </g>
    </g>
</svg>

<svg xmlns="http://www.w3.org/2000/svg" width="24" height="24"><g fill="none" fill-rule="evenodd"><path d="M24 0v24H0V0h24ZM12.593 23.258l-.011.002-.071.035-.02.004-.014-.004-.071-.035c-.01-.004-.019-.001-.024.005l-.004.01-.017.428.005.02.01.013.104.074.015.004.012-.004.104-.074.012-.016.004-.017-.017-.427c-.002-.01-.009-.017-.017-.018Zm.265-.113-.013.002-.185.093-.01.01-.003.011.018.43.005.012.008.007.201.093c.012.004.023 0 .029-.008l.004-.014-.034-.614c-.003-.012-.01-.02-.02-.022Zm-.715.002a.023.023 0 0 0-.027.006l-.006.014-.034.614c0 .012.007.02.017.024l.015-.002.201-.093.01-.008.004-.011.017-.43-.003-.012-.01-.01-.184-.092Z"/><path fill="#09244B" d="M10.75 2.567a2.5 2.5 0 0 1 2.332-.089l.168.089L19.544 6.2a2.5 2.5 0 0 1 1.244 1.987l.006.178v7.268a2.5 2.5 0 0 1-1.099 2.07l-.15.095-6.295 3.634a2.5 2.5 0 0 1-2.332.089l-.168-.09L4.456 17.8a2.5 2.5 0 0 1-1.244-1.987l-.006-.178V8.366a2.5 2.5 0 0 1 1.1-2.07l.15-.095 6.294-3.634Zm1.5 1.732a.5.5 0 0 0-.42-.037l-.08.037-6.294 3.634a.5.5 0 0 0-.242.345l-.008.088v7.268a.5.5 0 0 0 .178.382l.072.05 6.294 3.635a.5.5 0 0 0 .42.037l.08-.037 6.294-3.634a.5.5 0 0 0 .243-.345l.007-.088V8.366a.5.5 0 0 0-.177-.382l-.073-.051-6.294-3.634ZM12 8a4 4 0 1 1 0 8 4 4 0 0 1 0-8Zm0 2a2 2 0 1 0 0 4 2 2 0 0 0 0-4Z"/></g></svg>
